!!!OTL: 1491. Die lustige Schaeferei.
!!!ARE: Europa, Mitteleuropa, Deutschland, Hessen, Unter - Taunus; Dillkreis
!!!SCT: E1491
!!!TXL: @@DE
!!!YEM: Copyright 1995, estate of Helmut Schaffrath.
**kern	**text
*ICvox	*
!! Mixed meters:  3/4; 2/4
*M3/4	*
*k[b-]	*
*F:	*
!LO:TX:a:t=Mäßig bewegt.	!
!LO:TX:a:t=Aus dem Untertaunus- und Dillkreiſe 1880-90.	!
{8f	Schä-
8a	-fer,
=1	=1
4cc	ſag
4cc	Wo
8dd	willſt
8cc	du
=2	=2
8ccL	wei-
8ffJ	.
4a}	-den?
{8.dd	Drauß
16cc	im
=3	=3
8ccL	Feld
8b-J	.
4b-	auf
8.g	grü-
16b-/	-ner
=4	=4
4b-	Hei-
4a	-den.
4r}	.
=5	=5
*M2/4	*
{8g	Drauß'
8a	im
8b-	Feld
8g	auf
=6	=6
8a	grü-
8b-	-ner
8cc	Hei-
8cc}	-den
=7	=7
{8g	müſ-
8a	-ſen
8b-/	luſt-
8g	-ge
=8	=8
8a	Schä-
8b-/	-fer
8cc	wei-
8cc	-den,
=9	=9
4r;}	.
{8f	und
8a	ich
=10	=10
*M3/4	*
4cc	ſag
4cc	Es
8dd	bleibt
8cc	da-
=11	=11
(8ccL	-bei
8ffJ	.
4a)}	.
{8.dd	lu-
16cc	-ſtig
=12	=12
8ccL	iſt
8b-J	.
4b-	die
8.g	Schä-
16b-/	-ſe-
=15	=15
(4b-/	-rei.
4a;)}	.
==	==
!!!AGN: Staende - Lied, Hirten -,  Schaefer - Lied
!!!ONB: ESAC (Essen Associative Code) Database: ERK3
!!!AMT: irregular
!!!AIN: vox
!!!EED: Helmut Schaffrath
!!!EEV: 1.0
!!!GTL: Staendelieder (Berufslieder). 3. Hirtenlieder. Schaeferlieder.
!!!URL-scan: https://rosdok.uni-rostock.de/mcrviewer/recordIdentifier/rosdok_ppn745177999/iview2/phys_0348.iview2?x=-128.77276441889285&y=648.098756293999&scale=0.5870222003877487&rotation=0&layout=singlePageLayout
!!!ENC: Anna Maria Matuszewska
!!!EEV: 2025/03/01
*-	*-
